images/16757928.svg

<?xml version="1.0" encoding="UTF-8"?>
<svg xmlns="http://www.w3.org/2000/svg" xmlns:xlink="http://www.w3.org/1999/xlink" width="300pt" height="300pt" viewBox="0 0 300 300" version="1.1">
<defs>
<g>
<symbol overflow="visible" id="glyph0-0">
<path style="stroke:none;" d="M 0.546875 1.9375 L 0.546875 -7.75 L 6.046875 -7.75 L 6.046875 1.9375 Z M 1.171875 1.328125 L 5.4375 1.328125 L 5.4375 -7.140625 L 1.171875 -7.140625 Z M 1.171875 1.328125 "/>
</symbol>
<symbol overflow="visible" id="glyph0-1">
<path style="stroke:none;" d="M 4.328125 -7.28125 C 3.546875 -7.28125 2.921875 -6.984375 2.453125 -6.390625 C 1.992188 -5.804688 1.765625 -5.007812 1.765625 -4 C 1.765625 -2.988281 1.992188 -2.1875 2.453125 -1.59375 C 2.921875 -1.007812 3.546875 -0.71875 4.328125 -0.71875 C 5.117188 -0.71875 5.742188 -1.007812 6.203125 -1.59375 C 6.660156 -2.1875 6.890625 -2.988281 6.890625 -4 C 6.890625 -5.007812 6.660156 -5.804688 6.203125 -6.390625 C 5.742188 -6.984375 5.117188 -7.28125 4.328125 -7.28125 Z M 4.328125 -8.171875 C 5.453125 -8.171875 6.351562 -7.789062 7.03125 -7.03125 C 7.707031 -6.28125 8.046875 -5.269531 8.046875 -4 C 8.046875 -2.738281 7.707031 -1.726562 7.03125 -0.96875 C 6.351562 -0.21875 5.453125 0.15625 4.328125 0.15625 C 3.203125 0.15625 2.300781 -0.21875 1.625 -0.96875 C 0.957031 -1.71875 0.625 -2.726562 0.625 -4 C 0.625 -5.269531 0.957031 -6.28125 1.625 -7.03125 C 2.300781 -7.789062 3.203125 -8.171875 4.328125 -8.171875 Z M 4.328125 -8.171875 "/>
</symbol>
</g>
</defs>
<g id="surface31777">
<rect x="0" y="0" width="300" height="300" style="fill:rgb(100%,100%,100%);fill-opacity:1;stroke:none;"/>
<path style="fill:none;stroke-width:1;stroke-linecap:butt;stroke-linejoin:miter;stroke:rgb(0%,0%,0%);stroke-opacity:1;stroke-miterlimit:10;" d="M 187.269531 140.394531 L 187.269531 140.394531 M 189.578125 138.480469 L 188.785156 137.804688 M 191.890625 136.566406 L 190.300781 135.214844 M 194.199219 134.652344 L 191.816406 132.625 M 196.507812 132.738281 L 193.328125 130.035156 M 198.820312 130.824219 L 194.84375 127.449219 M 201.128906 128.910156 L 196.359375 124.859375 M 203.4375 126.996094 L 197.875 122.269531 M 205.75 125.078125 L 199.390625 119.679688 M 207.40625 123.707031 L 200.476562 117.820312 "/>
<path style="fill:none;stroke-width:1.2;stroke-linecap:butt;stroke-linejoin:miter;stroke:rgb(0%,0%,0%);stroke-opacity:1;stroke-miterlimit:10;" d="M 187.269531 140.394531 L 178.605469 116.140625 "/>
<path style="fill:none;stroke-width:1.2;stroke-linecap:butt;stroke-linejoin:miter;stroke:rgb(0%,0%,0%);stroke-opacity:1;stroke-miterlimit:10;" d="M 170.597656 160.023438 L 187.269531 140.394531 "/>
<path style="fill:none;stroke-width:1.2;stroke-linecap:butt;stroke-linejoin:miter;stroke:rgb(0%,0%,0%);stroke-opacity:1;stroke-miterlimit:10;" d="M 212.605469 145.019531 L 187.269531 140.394531 "/>
<path style="fill:none;stroke-width:1.2;stroke-linecap:butt;stroke-linejoin:miter;stroke:rgb(0%,0%,0%);stroke-opacity:1;stroke-miterlimit:10;" d="M 178.605469 116.140625 L 153.269531 111.515625 "/>
<path style="fill:none;stroke-width:1.2;stroke-linecap:butt;stroke-linejoin:miter;stroke:rgb(0%,0%,0%);stroke-opacity:1;stroke-miterlimit:10;" d="M 153.269531 111.515625 L 136.597656 131.148438 "/>
<path style="fill:none;stroke-width:1.2;stroke-linecap:butt;stroke-linejoin:miter;stroke:rgb(0%,0%,0%);stroke-opacity:1;stroke-miterlimit:10;" d="M 136.597656 131.148438 L 111.257812 126.523438 "/>
<path style="fill:none;stroke-width:1.2;stroke-linecap:butt;stroke-linejoin:miter;stroke:rgb(0%,0%,0%);stroke-opacity:1;stroke-miterlimit:10;" d="M 145.261719 155.402344 L 136.597656 131.148438 "/>
<path style="fill:none;stroke-width:1.2;stroke-linecap:butt;stroke-linejoin:miter;stroke:rgb(0%,0%,0%);stroke-opacity:1;stroke-miterlimit:10;" d="M 111.257812 126.523438 L 102.59375 102.269531 "/>
<path style="fill:none;stroke-width:1;stroke-linecap:butt;stroke-linejoin:miter;stroke:rgb(0%,0%,0%);stroke-opacity:1;stroke-miterlimit:10;" d="M 111.257812 126.523438 L 111.257812 126.523438 M 113.570312 124.609375 L 112.773438 123.933594 M 115.878906 122.695312 L 114.289062 121.34375 M 118.1875 120.78125 L 115.804688 118.753906 M 120.5 118.867188 L 117.320312 116.164062 M 122.808594 116.953125 L 118.835938 113.578125 M 125.117188 115.035156 L 120.351562 110.988281 M 127.429688 113.121094 L 121.867188 108.398438 M 129.738281 111.207031 L 123.378906 105.808594 M 131.394531 109.835938 L 124.46875 103.949219 "/>
<path style="fill:none;stroke-width:1.2;stroke-linecap:butt;stroke-linejoin:miter;stroke:rgb(0%,0%,0%);stroke-opacity:1;stroke-miterlimit:10;" d="M 94.585938 146.152344 L 111.257812 126.523438 "/>
<path style="fill:none;stroke-width:1.2;stroke-linecap:butt;stroke-linejoin:miter;stroke:rgb(0%,0%,0%);stroke-opacity:1;stroke-miterlimit:10;" d="M 102.59375 102.269531 L 77.257812 97.644531 "/>
<path style="fill:none;stroke-width:1.2;stroke-linecap:butt;stroke-linejoin:miter;stroke:rgb(0%,0%,0%);stroke-opacity:1;stroke-miterlimit:10;" d="M 98.972656 107.769531 L 78.703125 104.070312 "/>
<path style="fill:none;stroke-width:1.2;stroke-linecap:butt;stroke-linejoin:miter;stroke:rgb(0%,0%,0%);stroke-opacity:1;stroke-miterlimit:10;" d="M 77.257812 97.644531 L 60.585938 117.273438 "/>
<path style="fill:none;stroke-width:1.2;stroke-linecap:butt;stroke-linejoin:miter;stroke:rgb(0%,0%,0%);stroke-opacity:1;stroke-miterlimit:10;" d="M 61.128906 114.292969 L 48.460938 111.980469 "/>
<path style="fill:none;stroke-width:1.2;stroke-linecap:butt;stroke-linejoin:miter;stroke:rgb(100%,0%,0%);stroke-opacity:1;stroke-miterlimit:10;" d="M 48.460938 111.980469 L 35.792969 109.671875 "/>
<path style="fill:none;stroke-width:1.2;stroke-linecap:butt;stroke-linejoin:miter;stroke:rgb(0%,0%,0%);stroke-opacity:1;stroke-miterlimit:10;" d="M 60.042969 120.253906 L 47.375 117.945312 "/>
<path style="fill:none;stroke-width:1.2;stroke-linecap:butt;stroke-linejoin:miter;stroke:rgb(100%,0%,0%);stroke-opacity:1;stroke-miterlimit:10;" d="M 47.375 117.945312 L 34.707031 115.632812 "/>
<path style="fill:none;stroke-width:1.2;stroke-linecap:butt;stroke-linejoin:miter;stroke:rgb(0%,0%,0%);stroke-opacity:1;stroke-miterlimit:10;" d="M 60.585938 117.273438 L 69.25 141.527344 "/>
<path style=" stroke:none;fill-rule:nonzero;fill:rgb(100%,100%,100%);fill-opacity:1;" d="M 26.25 106.152344 L 35.25 106.152344 L 35.25 119.152344 L 26.25 119.152344 Z M 26.25 106.152344 "/>
<g style="fill:rgb(100%,0%,0%);fill-opacity:1;">
  <use xlink:href="#glyph0-1" x="26.25" y="116.053711"/>
</g>
<path style="fill:none;stroke-width:1.2;stroke-linecap:butt;stroke-linejoin:miter;stroke:rgb(0%,0%,0%);stroke-opacity:1;stroke-miterlimit:10;" d="M 69.25 141.527344 L 94.585938 146.152344 "/>
<path style="fill:none;stroke-width:1.2;stroke-linecap:butt;stroke-linejoin:miter;stroke:rgb(0%,0%,0%);stroke-opacity:1;stroke-miterlimit:10;" d="M 69.25 141.527344 L 69.097656 167.285156 "/>
<path style="fill:none;stroke-width:1.2;stroke-linecap:butt;stroke-linejoin:miter;stroke:rgb(0%,0%,0%);stroke-opacity:1;stroke-miterlimit:10;" d="M 69.25 141.527344 L 43.859375 145.851562 "/>
<path style="fill:none;stroke-width:1.2;stroke-linecap:butt;stroke-linejoin:miter;stroke:rgb(0%,0%,0%);stroke-opacity:1;stroke-miterlimit:10;" d="M 94.585938 146.152344 L 103.25 170.40625 "/>
<path style="fill:none;stroke-width:1.2;stroke-linecap:butt;stroke-linejoin:miter;stroke:rgb(0%,0%,0%);stroke-opacity:1;stroke-miterlimit:10;" d="M 103.25 170.40625 L 128.585938 175.03125 "/>
<path style="fill:none;stroke-width:1.2;stroke-linecap:butt;stroke-linejoin:miter;stroke:rgb(0%,0%,0%);stroke-opacity:1;stroke-miterlimit:10;" d="M 125.734375 176.050781 L 130.066406 188.175781 "/>
<path style="fill:none;stroke-width:1.2;stroke-linecap:butt;stroke-linejoin:miter;stroke:rgb(100%,0%,0%);stroke-opacity:1;stroke-miterlimit:10;" d="M 130.066406 188.175781 L 134.398438 200.304688 "/>
<path style="fill:none;stroke-width:1.2;stroke-linecap:butt;stroke-linejoin:miter;stroke:rgb(0%,0%,0%);stroke-opacity:1;stroke-miterlimit:10;" d="M 131.441406 174.011719 L 135.773438 186.136719 "/>
<path style="fill:none;stroke-width:1.2;stroke-linecap:butt;stroke-linejoin:miter;stroke:rgb(100%,0%,0%);stroke-opacity:1;stroke-miterlimit:10;" d="M 135.773438 186.136719 L 140.105469 198.265625 "/>
<path style="fill:none;stroke-width:1.2;stroke-linecap:butt;stroke-linejoin:miter;stroke:rgb(0%,0%,0%);stroke-opacity:1;stroke-miterlimit:10;" d="M 128.585938 175.03125 L 145.261719 155.402344 "/>
<path style=" stroke:none;fill-rule:nonzero;fill:rgb(100%,100%,100%);fill-opacity:1;" d="M 133.25 192.785156 L 142.25 192.785156 L 142.25 205.785156 L 133.25 205.785156 Z M 133.25 192.785156 "/>
<g style="fill:rgb(100%,0%,0%);fill-opacity:1;">
  <use xlink:href="#glyph0-1" x="133.25" y="202.686523"/>
</g>
<path style="fill:none;stroke-width:1.2;stroke-linecap:butt;stroke-linejoin:miter;stroke:rgb(0%,0%,0%);stroke-opacity:1;stroke-miterlimit:10;" d="M 145.261719 155.402344 L 170.597656 160.023438 "/>
<path style=" stroke:none;fill-rule:nonzero;fill:rgb(0%,0%,0%);fill-opacity:1;" d="M 145.261719 155.402344 L 142.085938 169.46875 L 151.132812 168.574219 Z M 145.261719 155.402344 "/>
<path style="fill:none;stroke-width:1.2;stroke-linecap:butt;stroke-linejoin:miter;stroke:rgb(0%,0%,0%);stroke-opacity:1;stroke-miterlimit:10;" d="M 170.597656 160.023438 L 179.261719 184.277344 "/>
<path style="fill:none;stroke-width:1;stroke-linecap:butt;stroke-linejoin:miter;stroke:rgb(0%,0%,0%);stroke-opacity:1;stroke-miterlimit:10;" d="M 170.597656 160.023438 L 170.597656 160.023438 M 168.285156 161.9375 L 169.082031 162.613281 M 165.976562 163.851562 L 167.566406 165.203125 M 163.667969 165.765625 L 166.050781 167.792969 M 161.355469 167.679688 L 164.535156 170.382812 M 159.046875 169.59375 L 163.019531 172.972656 M 156.738281 171.511719 L 161.503906 175.558594 M 154.425781 173.425781 L 159.992188 178.148438 M 152.117188 175.339844 L 158.476562 180.738281 M 150.460938 176.710938 L 157.386719 182.597656 "/>
<path style="fill:none;stroke-width:1.2;stroke-linecap:butt;stroke-linejoin:miter;stroke:rgb(0%,0%,0%);stroke-opacity:1;stroke-miterlimit:10;" d="M 179.261719 184.277344 L 166.59375 181.964844 "/>
<path style="fill:none;stroke-width:1.2;stroke-linecap:butt;stroke-linejoin:miter;stroke:rgb(100%,0%,0%);stroke-opacity:1;stroke-miterlimit:10;" d="M 166.59375 181.964844 L 153.925781 179.65625 "/>
<path style="fill:none;stroke-width:1.2;stroke-linecap:butt;stroke-linejoin:miter;stroke:rgb(0%,0%,0%);stroke-opacity:1;stroke-miterlimit:10;" d="M 179.261719 184.277344 L 204.597656 188.902344 "/>
<path style=" stroke:none;fill-rule:nonzero;fill:rgb(100%,100%,100%);fill-opacity:1;" d="M 149.925781 173.15625 L 158.925781 173.15625 L 158.925781 186.15625 L 149.925781 186.15625 Z M 149.925781 173.15625 "/>
<g style="fill:rgb(100%,0%,0%);fill-opacity:1;">
  <use xlink:href="#glyph0-1" x="149.925781" y="183.057617"/>
</g>
<path style="fill:none;stroke-width:1.2;stroke-linecap:butt;stroke-linejoin:miter;stroke:rgb(0%,0%,0%);stroke-opacity:1;stroke-miterlimit:10;" d="M 201.742188 189.921875 L 206.074219 202.046875 "/>
<path style="fill:none;stroke-width:1.2;stroke-linecap:butt;stroke-linejoin:miter;stroke:rgb(100%,0%,0%);stroke-opacity:1;stroke-miterlimit:10;" d="M 206.074219 202.046875 L 210.40625 214.175781 "/>
<path style="fill:none;stroke-width:1.2;stroke-linecap:butt;stroke-linejoin:miter;stroke:rgb(0%,0%,0%);stroke-opacity:1;stroke-miterlimit:10;" d="M 207.449219 187.882812 L 211.78125 200.011719 "/>
<path style="fill:none;stroke-width:1.2;stroke-linecap:butt;stroke-linejoin:miter;stroke:rgb(100%,0%,0%);stroke-opacity:1;stroke-miterlimit:10;" d="M 211.78125 200.011719 L 216.113281 212.136719 "/>
<path style="fill:none;stroke-width:1.2;stroke-linecap:butt;stroke-linejoin:miter;stroke:rgb(0%,0%,0%);stroke-opacity:1;stroke-miterlimit:10;" d="M 204.597656 188.902344 L 212.933594 179.085938 "/>
<path style="fill:none;stroke-width:1.2;stroke-linecap:butt;stroke-linejoin:miter;stroke:rgb(100%,0%,0%);stroke-opacity:1;stroke-miterlimit:10;" d="M 212.933594 179.085938 L 221.269531 169.273438 "/>
<path style=" stroke:none;fill-rule:nonzero;fill:rgb(100%,100%,100%);fill-opacity:1;" d="M 209.261719 206.65625 L 218.261719 206.65625 L 218.261719 219.65625 L 209.261719 219.65625 Z M 209.261719 206.65625 "/>
<g style="fill:rgb(100%,0%,0%);fill-opacity:1;">
  <use xlink:href="#glyph0-1" x="209.261719" y="216.557617"/>
</g>
<path style="fill:none;stroke-width:1.2;stroke-linecap:butt;stroke-linejoin:miter;stroke:rgb(100%,0%,0%);stroke-opacity:1;stroke-miterlimit:10;" d="M 221.269531 169.273438 L 216.9375 157.144531 "/>
<path style="fill:none;stroke-width:1.2;stroke-linecap:butt;stroke-linejoin:miter;stroke:rgb(0%,0%,0%);stroke-opacity:1;stroke-miterlimit:10;" d="M 216.9375 157.144531 L 212.605469 145.019531 "/>
<path style=" stroke:none;fill-rule:nonzero;fill:rgb(100%,100%,100%);fill-opacity:1;" d="M 217.269531 162.773438 L 226.269531 162.773438 L 226.269531 175.773438 L 217.269531 175.773438 Z M 217.269531 162.773438 "/>
<g style="fill:rgb(100%,0%,0%);fill-opacity:1;">
  <use xlink:href="#glyph0-1" x="217.269531" y="172.674805"/>
</g>
<path style="fill:none;stroke-width:1.2;stroke-linecap:butt;stroke-linejoin:miter;stroke:rgb(0%,0%,0%);stroke-opacity:1;stroke-miterlimit:10;" d="M 212.605469 145.019531 L 229.277344 125.386719 "/>
<path style="fill:none;stroke-width:1.2;stroke-linecap:butt;stroke-linejoin:miter;stroke:rgb(0%,0%,0%);stroke-opacity:1;stroke-miterlimit:10;" d="M 229.277344 125.386719 L 223.195312 100.359375 "/>
<path style="fill:none;stroke-width:1.2;stroke-linecap:butt;stroke-linejoin:miter;stroke:rgb(0%,0%,0%);stroke-opacity:1;stroke-miterlimit:10;" d="M 234.558594 121.453125 L 229.695312 101.433594 "/>
<path style="fill:none;stroke-width:1.2;stroke-linecap:butt;stroke-linejoin:miter;stroke:rgb(0%,0%,0%);stroke-opacity:1;stroke-miterlimit:10;" d="M 254.960938 127.339844 L 229.277344 125.386719 "/>
<path style="fill:none;stroke-width:1.2;stroke-linecap:butt;stroke-linejoin:miter;stroke:rgb(0%,0%,0%);stroke-opacity:1;stroke-miterlimit:10;" d="M 223.195312 100.359375 L 234.160156 93.601562 "/>
<path style="fill:none;stroke-width:1.2;stroke-linecap:butt;stroke-linejoin:miter;stroke:rgb(100%,0%,0%);stroke-opacity:1;stroke-miterlimit:10;" d="M 234.160156 93.601562 L 245.121094 86.84375 "/>
<path style="fill:none;stroke-width:1.2;stroke-linecap:butt;stroke-linejoin:miter;stroke:rgb(100%,0%,0%);stroke-opacity:1;stroke-miterlimit:10;" d="M 245.121094 86.84375 L 254.933594 95.179688 "/>
<path style="fill:none;stroke-width:1.2;stroke-linecap:butt;stroke-linejoin:miter;stroke:rgb(0%,0%,0%);stroke-opacity:1;stroke-miterlimit:10;" d="M 254.933594 95.179688 L 264.75 103.515625 "/>
<path style=" stroke:none;fill-rule:nonzero;fill:rgb(100%,100%,100%);fill-opacity:1;" d="M 241.121094 80.34375 L 250.121094 80.34375 L 250.121094 93.34375 L 241.121094 93.34375 Z M 241.121094 80.34375 "/>
<g style="fill:rgb(100%,0%,0%);fill-opacity:1;">
  <use xlink:href="#glyph0-1" x="241.121094" y="90.245117"/>
</g>
<path style="fill:none;stroke-width:1.2;stroke-linecap:butt;stroke-linejoin:miter;stroke:rgb(0%,0%,0%);stroke-opacity:1;stroke-miterlimit:10;" d="M 264.75 103.515625 L 254.960938 127.339844 "/>
<path style="fill:none;stroke-width:1.2;stroke-linecap:butt;stroke-linejoin:miter;stroke:rgb(0%,0%,0%);stroke-opacity:1;stroke-miterlimit:10;" d="M 258.164062 103.59375 L 250.332031 122.652344 "/>
</g>
</svg>

<svg xmlns="http://www.w3.org/2000/svg" xmlns:xlink="http://www.w3.org/1999/xlink" width="300pt" height="300pt" viewBox="0 0 300 300"><defs><symbol overflow="visible"><path d="M.547 1.938V-7.75h5.5v9.688zm.625-.61h4.266v-8.47H1.171zm0 0"/></symbol><symbol overflow="visible" id="a"><path d="M4.328-7.28c-.78 0-1.406.296-1.875.89-.46.585-.687 1.382-.687 2.39 0 1.012.226 1.813.687 2.406.47.586 1.094.875 1.875.875.79 0 1.414-.288 1.875-.874.457-.593.688-1.394.688-2.406 0-1.008-.23-1.805-.687-2.39-.46-.594-1.086-.89-1.875-.89zm0-.892c1.125 0 2.024.383 2.703 1.14C7.708-6.28 8.048-5.27 8.048-4c0 1.262-.34 2.273-1.016 3.03C6.353-.22 5.454.157 4.33.157S2.3-.22 1.625-.97c-.668-.75-1-1.757-1-3.03 0-1.27.332-2.28 1-3.03.676-.76 1.578-1.142 2.703-1.142zm0 0"/></symbol></defs><g><path fill="#fff" d="M0 0h300v300H0z"/><path d="M187.27 140.395m2.308-1.915l-.793-.675m3.106-1.24l-1.59-1.35m3.9-.563l-2.384-2.027m4.692.113l-3.18-2.703m5.492.79l-3.976-3.376m6.285 1.46l-4.77-4.05m7.077 2.136l-5.562-4.726m7.875 2.808l-6.36-5.398m8.016 4.027l-6.93-5.887" stroke="#000" stroke-miterlimit="10" fill="none"/><path d="M187.27 140.395l-8.665-24.254M170.598 160.023l16.672-19.628M212.605 145.02l-25.335-4.625M178.605 116.14l-25.335-4.624M153.27 111.516l-16.672 19.632M136.598 131.148l-25.34-4.625M145.262 155.402l-8.664-24.254M111.258 126.523l-8.664-24.253" stroke-width="1.2" stroke="#000" stroke-miterlimit="10" fill="none"/><path d="M111.258 126.523m2.312-1.914l-.797-.676m3.106-1.24l-1.59-1.35m3.897-.563l-2.382-2.026m4.695.113l-3.18-2.703m5.49.79l-3.974-3.376m6.28 1.457l-4.764-4.047m7.078 2.133l-5.563-4.722m7.87 2.81l-6.358-5.4m8.015 4.028l-6.926-5.887" stroke="#000" stroke-miterlimit="10" fill="none"/><path d="M94.586 146.152l16.672-19.63M102.594 102.27l-25.336-4.625M98.973 107.77l-20.27-3.7M77.258 97.645l-16.672 19.628M61.13 114.293l-12.67-2.313" stroke-width="1.2" stroke="#000" stroke-miterlimit="10" fill="none"/><path d="M48.46 111.98l-12.667-2.308" stroke-width="1.2" stroke="#f00" stroke-miterlimit="10" fill="none"/><path d="M60.043 120.254l-12.668-2.31" stroke-width="1.2" stroke="#000" stroke-miterlimit="10" fill="none"/><path d="M47.375 117.945l-12.668-2.312" stroke-width="1.2" stroke="#f00" stroke-miterlimit="10" fill="none"/><path d="M60.586 117.273l8.664 24.254" stroke-width="1.2" stroke="#000" stroke-miterlimit="10" fill="none"/><path d="M26.25 106.152h9v13h-9zm0 0" fill="#fff"/><use xlink:href="#a" x="26.25" y="116.054" fill="#f00"/><path d="M69.25 141.527l25.336 4.625M69.25 141.527l-.152 25.758M69.25 141.527l-25.39 4.325M94.586 146.152l8.664 24.254M103.25 170.406l25.336 4.625M125.734 176.05l4.332 12.126" stroke-width="1.2" stroke="#000" stroke-miterlimit="10" fill="none"/><path d="M130.066 188.176l4.332 12.13" stroke-width="1.2" stroke="#f00" stroke-miterlimit="10" fill="none"/><path d="M131.44 174.012l4.333 12.125" stroke-width="1.2" stroke="#000" stroke-miterlimit="10" fill="none"/><path d="M135.773 186.137l4.332 12.13" stroke-width="1.2" stroke="#f00" stroke-miterlimit="10" fill="none"/><path d="M128.586 175.03l16.676-19.628" stroke-width="1.2" stroke="#000" stroke-miterlimit="10" fill="none"/><path d="M133.25 192.785h9v13h-9zm0 0" fill="#fff"/><use xlink:href="#a" x="133.25" y="202.687" fill="#f00"/><path d="M145.262 155.402l25.336 4.62" stroke-width="1.2" stroke="#000" stroke-miterlimit="10" fill="none"/><path d="M145.262 155.402l-3.176 14.067 9.047-.896zm0 0"/><path d="M170.598 160.023l8.664 24.254" stroke-width="1.2" stroke="#000" stroke-miterlimit="10" fill="none"/><path d="M170.598 160.023m-2.313 1.915l.797.675m-3.105 1.24l1.59 1.35m-3.9.563l2.384 2.027m-4.695-.113l3.18 2.703m-5.488-.79l3.973 3.38m-6.282-1.46l4.766 4.046m-7.078-2.134l5.566 4.722m-7.875-2.808l6.36 5.398m-8.016-4.027l6.927 5.888" stroke="#000" stroke-miterlimit="10" fill="none"/><path d="M179.262 184.277l-12.668-2.312" stroke-width="1.2" stroke="#000" stroke-miterlimit="10" fill="none"/><path d="M166.594 181.965l-12.668-2.31" stroke-width="1.2" stroke="#f00" stroke-miterlimit="10" fill="none"/><path d="M179.262 184.277l25.336 4.625" stroke-width="1.2" stroke="#000" stroke-miterlimit="10" fill="none"/><path d="M149.926 173.156h9v13h-9zm0 0" fill="#fff"/><use xlink:href="#a" x="149.926" y="183.058" fill="#f00"/><path d="M201.742 189.922l4.332 12.125" stroke-width="1.2" stroke="#000" stroke-miterlimit="10" fill="none"/><path d="M206.074 202.047l4.332 12.13" stroke-width="1.2" stroke="#f00" stroke-miterlimit="10" fill="none"/><path d="M207.45 187.883l4.33 12.13" stroke-width="1.2" stroke="#000" stroke-miterlimit="10" fill="none"/><path d="M211.78 200.012l4.333 12.125" stroke-width="1.2" stroke="#f00" stroke-miterlimit="10" fill="none"/><path d="M204.598 188.902l8.336-9.816" stroke-width="1.2" stroke="#000" stroke-miterlimit="10" fill="none"/><path d="M212.934 179.086l8.336-9.813" stroke-width="1.2" stroke="#f00" stroke-miterlimit="10" fill="none"/><path d="M209.262 206.656h9v13h-9zm0 0" fill="#fff"/><use xlink:href="#a" x="209.262" y="216.558" fill="#f00"/><path d="M221.27 169.273l-4.333-12.128" stroke-width="1.2" stroke="#f00" stroke-miterlimit="10" fill="none"/><path d="M216.938 157.145l-4.333-12.125" stroke-width="1.2" stroke="#000" stroke-miterlimit="10" fill="none"/><path d="M217.27 162.773h9v13h-9zm0 0" fill="#fff"/><use xlink:href="#a" x="217.27" y="172.675" fill="#f00"/><path d="M212.605 145.02l16.672-19.633M229.277 125.387l-6.082-25.028M234.56 121.453l-4.865-20.02M254.96 127.34l-25.683-1.953M223.195 100.36L234.16 93.6" stroke-width="1.2" stroke="#000" stroke-miterlimit="10" fill="none"/><path d="M234.16 93.602l10.96-6.758M245.12 86.844l9.814 8.336" stroke-width="1.2" stroke="#f00" stroke-miterlimit="10" fill="none"/><path d="M254.934 95.18l9.816 8.336" stroke-width="1.2" stroke="#000" stroke-miterlimit="10" fill="none"/><path d="M241.12 80.344h9v13h-9zm0 0" fill="#fff"/><use xlink:href="#a" x="241.121" y="90.245" fill="#f00"/><path d="M264.75 103.516l-9.79 23.824M258.164 103.594l-7.832 19.058" stroke-width="1.2" stroke="#000" stroke-miterlimit="10" fill="none"/></g></svg>
